src/assets-svg/book.svg

<svg width="17" height="17" viewBox="0 0 17 17" fill="none" xmlns="http://www.w3.org/2000/svg">
<path d="M8.49996 15.6405C8.28746 15.6405 8.07496 15.5909 7.89788 15.4917C6.57329 14.7692 4.24288 14.0042 2.78371 13.813L2.57829 13.7846C1.65038 13.6713 0.885376 12.8001 0.885376 11.858V3.30131C0.885376 2.74172 1.10496 2.23172 1.50871 1.86339C1.91246 1.49506 2.43663 1.31797 2.98913 1.36756C4.54746 1.48797 6.89913 2.26714 8.23079 3.10297L8.40079 3.20214C8.45038 3.23047 8.55663 3.23047 8.59913 3.20922L8.71246 3.13839C10.0441 2.30256 12.3958 1.50922 13.9612 1.37464C13.9754 1.37464 14.032 1.37464 14.0462 1.37464C14.5633 1.32506 15.0945 1.50922 15.4912 1.87756C15.895 2.24589 16.1145 2.75589 16.1145 3.31547V11.8651C16.1145 12.8142 15.3495 13.6784 14.4145 13.7917L14.1808 13.8201C12.7216 14.0113 10.3841 14.7834 9.08788 15.4988C8.91788 15.598 8.71246 15.6405 8.49996 15.6405ZM2.81913 2.42297C2.59246 2.42297 2.38704 2.50089 2.22413 2.64964C2.04704 2.81256 1.94788 3.04631 1.94788 3.30131V11.858C1.94788 12.2759 2.30913 12.6796 2.71288 12.7363L2.92538 12.7646C4.51913 12.9771 6.96288 13.7776 8.37954 14.5496C8.44329 14.578 8.53538 14.5851 8.57079 14.5709C9.98746 13.7846 12.4454 12.9771 14.0462 12.7646L14.287 12.7363C14.6908 12.6867 15.052 12.2759 15.052 11.858V3.30839C15.052 3.04631 14.9529 2.81964 14.7758 2.64964C14.5916 2.48672 14.3579 2.40881 14.0958 2.42297C14.0816 2.42297 14.025 2.42297 14.0108 2.42297C12.6579 2.54339 10.4762 3.27297 9.28621 4.01672L9.17288 4.09464C8.78329 4.33547 8.23079 4.33547 7.85538 4.10172L7.68538 4.00256C6.47413 3.25881 4.29246 2.53631 2.90413 2.42297C2.87579 2.42297 2.84746 2.42297 2.81913 2.42297Z" fill="#6F757E"/>
<path d="M8.5 15.0449C8.20958 15.0449 7.96875 14.8041 7.96875 14.5137V3.88867C7.96875 3.59826 8.20958 3.35742 8.5 3.35742C8.79042 3.35742 9.03125 3.59826 9.03125 3.88867V14.5137C9.03125 14.8112 8.79042 15.0449 8.5 15.0449Z" fill="#6F757E"/>
<path d="M5.48962 6.54492H3.89587C3.60546 6.54492 3.36462 6.30409 3.36462 6.01367C3.36462 5.72326 3.60546 5.48242 3.89587 5.48242H5.48962C5.78004 5.48242 6.02087 5.72326 6.02087 6.01367C6.02087 6.30409 5.78004 6.54492 5.48962 6.54492Z" fill="#6F757E"/>
<path d="M6.02087 8.66992H3.89587C3.60546 8.66992 3.36462 8.42909 3.36462 8.13867C3.36462 7.84826 3.60546 7.60742 3.89587 7.60742H6.02087C6.31129 7.60742 6.55212 7.84826 6.55212 8.13867C6.55212 8.42909 6.31129 8.66992 6.02087 8.66992Z" fill="#6F757E"/>
</svg>

<svg width="17" height="17" fill="none" xmlns="http://www.w3.org/2000/svg"><path d="M8.5 15.64c-.213 0-.425-.05-.602-.148-1.325-.723-3.655-1.488-5.114-1.679l-.206-.028C1.65 13.67.885 12.8.885 11.858V3.301c0-.56.22-1.07.624-1.438a1.915 1.915 0 0 1 1.48-.495c1.558.12 3.91.9 5.242 1.735l.17.1c.05.027.156.027.198.006l.113-.07c1.332-.836 3.684-1.63 5.25-1.764h.084a1.878 1.878 0 0 1 1.445.503c.404.368.623.878.623 1.437v8.55c0 .95-.764 1.813-1.7 1.927l-.233.028c-1.46.191-3.797.963-5.093 1.679-.17.099-.376.141-.588.141ZM2.82 2.423a.866.866 0 0 0-.596.227.876.876 0 0 0-.276.651v8.557c0 .418.361.822.765.878l.212.029c1.594.212 4.038 1.013 5.455 1.785.063.028.155.035.19.02 1.417-.785 3.875-1.593 5.476-1.805l.241-.029c.404-.05.765-.46.765-.878v-8.55c0-.262-.1-.488-.276-.658a.925.925 0 0 0-.68-.227h-.085c-1.353.12-3.535.85-4.725 1.594l-.113.078c-.39.24-.942.24-1.318.007l-.17-.1c-1.21-.743-3.393-1.466-4.78-1.579h-.086Z" fill="#6F757E"/><path d="M8.5 15.045a.535.535 0 0 1-.531-.531V3.889c0-.29.24-.532.531-.532.29 0 .531.241.531.532v10.625a.53.53 0 0 1-.531.53ZM5.49 6.545H3.896a.535.535 0 0 1-.531-.531c0-.29.24-.532.53-.532H5.49c.29 0 .53.241.53.532 0 .29-.24.53-.53.53ZM6.02 8.67H3.897a.535.535 0 0 1-.531-.531c0-.29.24-.532.53-.532h2.126c.29 0 .531.241.531.532 0 .29-.24.53-.531.53Z" fill="#6F757E"/></svg>
